build/category/StoreSolid.svg

<svg xmlns="http://www.w3.org/2000/svg" fill="none" viewBox="0 0 24 24" focusable="false"><path d="M0 0H24V24H0z"/><path fill="#74767B" fill-rule="evenodd" d="M4.87796 4.86713C5.06076 4.34625 5.55259 3.99762 6.10462 3.99762L17.8954 3.99762C18.4474 3.99762 18.9392 4.34624 19.122 4.86711L20.7598 9.53376L20.7615 9.88672C20.5679 11.2541 19.5025 11.9959 18.4526 11.9959C17.4027 11.9959 16.046 11.1855 15.8578 10.4142C15.7284 11.1938 14.9379 12.039 13.9316 12.039C13.0043 12.039 12.1548 11.1048 11.9733 10.4142C11.8383 11.1152 11.2255 12.0354 10.0778 12.0354C8.93037 12.0354 8.25441 11.1125 8.09739 10.4142C7.907 11.1021 6.72911 12.0024 5.70788 12.0024C4.41627 12.0024 3.43237 11.1303 3.23828 9.88565L3.24023 9.53376L4.87796 4.86713ZM5 13.9511C5 13.5806 5.33745 13.3024 5.70789 13.3024C6.46394 13.3024 7.14362 13.0609 7.69184 12.727C7.85009 12.6306 8.05256 12.6406 8.20343 12.7482C8.69686 13.1 9.32041 13.3354 10.0778 13.3354C10.7571 13.3354 11.3187 13.148 11.772 12.8583C11.9254 12.7602 12.1237 12.7575 12.2782 12.8538C12.7369 13.1398 13.297 13.339 13.9316 13.339C14.669 13.339 15.2928 13.0743 15.7754 12.7209C15.9219 12.6136 16.1196 12.6004 16.2767 12.6916C16.9343 13.0732 17.6921 13.2959 18.4526 13.2959C18.7406 13.2959 19 13.5132 19 13.8012L19 19.7C19 20.418 18.418 21 17.7 21L15.3 21C14.582 21 14 20.418 14 19.7L14 17.2732C14 16.5552 13.418 15.9732 12.7 15.9732L11.3 15.9732C10.582 15.9732 10 16.5552 10 17.2732L10 19.7C10 20.4158 9.41585 20.997 8.7 21L6.3 21C5.58203 21 5 20.418 5 19.7L5 13.9511Z"/></svg>

<svg xmlns="http://www.w3.org/2000/svg" fill="none" viewBox="0 0 24 24" focusable="false"><path fill="#74767B" fill-rule="evenodd" d="M6.1 3.99c-.55 0-1.04.35-1.23.87L3.24 9.53l-.01.35C3.43 11.13 4.41 12 5.7 12c1.02 0 2.2-.9 2.39-1.59.16.7.84 1.62 1.98 1.62 1.15 0 1.76-.92 1.9-1.62.18.69 1.03 1.62 1.96 1.62 1 0 1.79-.84 1.92-1.62.19.77 1.55 1.58 2.6 1.58s2.11-.74 2.31-2.11l-.01-.35-1.63-4.67c-.19-.52-.68-.87-1.23-.87zM5 13.95c0-.37.33-.65.7-.65.76 0 1.44-.24 1.99-.58.16-.09.36-.08.51.02.49.36 1.12.59 1.87.59.68 0 1.24-.19 1.7-.48.15-.09.35-.1.5 0 .46.28 1.02.48 1.66.48.73 0 1.36-.26 1.84-.61.15-.11.34-.12.5-.03.66.38 1.42.6 2.18.6.29 0 .55.22.55.51v5.9c0 .71-.59 1.3-1.3 1.3h-2.41c-.71 0-1.29-.59-1.29-1.3v-2.43c0-.72-.59-1.3-1.3-1.3h-1.41c-.71 0-1.29.58-1.29 1.3v2.43c0 .71-.59 1.29-1.3 1.3H6.29C5.58 21 5 20.41 5 19.7z"/></svg>
